X:1
T:Harmony Check - Porch Light
M:4/4
L:1/4
Q:1/4=86
K:DDor
V:1
[V:1] "F/A" A4 | "F/A" A4 | "F/A" A4 | "F/A" A4 |
[V:1] "F/A" A4 | "F/A" A4 | "F/G" G4 | "F/D" D4 |
[V:1] "Bbmaj7" _B4 | "A7b9#5" A4 | "Gm9" G4 | "C7b9#5" C4 |
[V:1] "FM9" F4 | "Ebmaj7" _E4 | "A7b9#5" A4 | "A7b9#5" A4 |
[V:1] "F/A" A4 | "F/A" A4 | "F/A" A4 | "F/A" A4 |
[V:1] "F/A" A4 | "F/A" A4 | "F/G" G4 | "F/D" D4 |]
